X:1
T:Armor, 76.76 D
T:Armor, 76.76 D
T:Hubert Platt Main, 1893
T:Public Domain Courtesy of the Cyber Hymnal™
C:Hubert Platt Main, 1893
Z:Public Domain
Z:Courtesy of the Cyber Hymnal™
%%score ( 1 2 ) ( 3 4 )
L:1/8
Q:1/4=110
M:4/4
K:C
V:1 treble 
V:2 treble 
V:3 bass 
V:4 bass 
V:1
 G2 | [Ec]3 [CG] [CE]2 [B,D]2 | C4 C2 [B,D]2 | [CE]2 ([DF][EG]) [DF]2 [CE]2 | ([CE]4 [B,D]2) G2 | %5
 [Ec]3 [CG] [CE]2 [B,D]2 | C4 C2 [B,D]2 | [B,E]2 [EA]2 [DG]2 [C^F]2 G2 | [GB]3 [GB] [Gc]2 [Fd]2 | %9
 ([DB]3 [CA]) [B,G]2 [DG]2 | [Gc]3 [Ge] [Fd]2 [Dc]2 | [DB]6 G2 | [Ec]3 [EG] [CE]2 C2 | %13
 [CA]4 [FA]2 [Dd]2 | [DB]2 d2 [Ec]2 [FB]2 | [Ec]6 x2 |] x6 |] %17
V:2
 G2 | x8 | C4 C2 x2 | x8 | x6 G2 | x8 | C4 C2 x2 | x8 G2 | x8 | x8 | x8 | x6 G2 | x6 C2 | x8 | %14
 x2 (CD) x4 | x8 |] x6 |] %17
V:3
 G,2 | [C,G,]3 [E,G,] G,2 [G,,F,]2 | [C,E,]4 [C,E,]2 [G,,G,]2 | [C,G,]2 [C,G,]2 [B,,G,]2 [C,G,]2 | %4
 G,6 G,2 | [C,G,]3 [E,G,] G,2 [G,,F,]2 | [A,,E,]4 [A,,E,]2 [G,,G,]2 | %7
 [C,G,]2 [A,,C]2 [D,B,]2 [D,A,]2 x2 | [G,,G,]6 G,2 | [G,D]3 [F,D] [E,C]2 [F,A,]2 | %10
 G,4 G,2 [F,B,]2 | [E,C]3 [C,C] [F,A,]2 [^F,A,]2 | G,6 G,2 | [C,G,]3 [C,G,] [C,C]2 [E,_B,]2 | %14
 [F,A,]4 [F,A,]2 [^F,A,]2 | G,2 ([E,G,][F,A,]) G,2 [G,,G,]2 |] [C,G,]6 |] %17
V:4
 G,2 | x4 G,2 x2 | x8 | x8 | G,6 G,2 | x4 G,2 x2 | x8 | x10 | x6 G,2 | x8 | G,4 G,2 x2 | x8 | %12
 G,6 G,2 | x8 | x8 | (G,F,) x G,2 x3 |] x6 |] %17

